X:2807
T:Centennial Reel
C:Andy De Jarlis
M:2/4
L:1/8
K:G
d|gb/g/ d/g/b/g/|d/g/b/d/ gf/g/|e^c/e/ A/e/^c/e/|A^c/d/ e/f/g/e/|!
GB/d/ g/G/B/d/|gf/g/ ef/g/|a/f/g/e/ d/e/g/e/|d/B/A/F/ Gd|!
gb/g/ d/g/b/g/|d/g/b/d/ gf/g/|e^c/e/ A/e/^c/e/|A^c/d/ e/f/g/e/|!
GB/d/ g/G/B/d/|gf/g/ ef/g/|a/f/g/e/ d/e/g/e/|d/B/A/F/ G:|!
|:B/c/|d/B/B/A/ B/A/G/B/|A/G/E/G/ DD/E/|=FC/=F/ c/=F/A/=F/|c/=F/A/=F/ cB/c/|!
d/B/B/A/ B/A/G/B/|A/G/E/G/ DB,/D/|B,E/D/ E/F/G/A/|B/G/A/F/ GB/c/|!
d/B/B/A/ B/A/G/B/|A/G/E/G/ DD/E/|=FC/=F/ c/=F/A/=F/|c/=F/A/=F/ cB/c/|!
d/B/B/A/ B/A/G/B/|A/G/E/G/ DB,/D/|B,E/D/ E/F/G/A/|B/G/A/F/ G:|!


